src/assets/icons/cash.svg

<svg width="20" height="20" viewBox="0 0 20 20" fill="none" xmlns="http://www.w3.org/2000/svg">
<path d="M10 6.25C8.96447 6.25 8.125 7.08947 8.125 8.125C8.125 9.16053 8.96447 10 10 10C11.0355 10 11.875 9.16053 11.875 8.125C11.875 7.08947 11.0355 6.25 10 6.25Z" fill="#A685FA"/>
<path fill-rule="evenodd" clip-rule="evenodd" d="M1.25 4.0625C1.25 3.19956 1.94956 2.5 2.8125 2.5H17.1875C18.0504 2.5 18.75 3.19956 18.75 4.0625V12.1875C18.75 13.0504 18.0504 13.75 17.1875 13.75H2.8125C1.94955 13.75 1.25 13.0504 1.25 12.1875V4.0625ZM6.875 8.125C6.875 6.39911 8.27411 5 10 5C11.7259 5 13.125 6.39911 13.125 8.125C13.125 9.85089 11.7259 11.25 10 11.25C8.27411 11.25 6.875 9.85089 6.875 8.125ZM15.625 7.5C15.2798 7.5 15 7.77982 15 8.125V8.13125C15 8.47643 15.2798 8.75625 15.625 8.75625H15.6313C15.9764 8.75625 16.2563 8.47643 16.2563 8.13125V8.125C16.2563 7.77982 15.9764 7.5 15.6313 7.5H15.625ZM3.75 8.125C3.75 7.77982 4.02982 7.5 4.375 7.5H4.38125C4.72643 7.5 5.00625 7.77982 5.00625 8.125V8.13125C5.00625 8.47643 4.72643 8.75625 4.38125 8.75625H4.375C4.02982 8.75625 3.75 8.47643 3.75 8.13125V8.125Z" fill="#A685FA"/>
<path d="M1.875 15C1.52982 15 1.25 15.2798 1.25 15.625C1.25 15.9702 1.52982 16.25 1.875 16.25C6.37504 16.25 10.7335 16.8518 14.8748 17.9791C15.867 18.2491 16.875 17.514 16.875 16.4626V15.625C16.875 15.2798 16.5952 15 16.25 15H1.875Z" fill="#A685FA"/>
</svg>

<svg xmlns="http://www.w3.org/2000/svg" width="20" height="20" fill="#a685fa" xmlns:v="https://vecta.io/nano"><path d="M10 6.25c-1.036 0-1.875.839-1.875 1.875S8.964 10 10 10s1.875-.839 1.875-1.875S11.036 6.25 10 6.25z"/><path fill-rule="evenodd" d="M1.25 4.063c0-.863.7-1.562 1.563-1.562h14.375c.863 0 1.563.7 1.563 1.563v8.125c0 .863-.7 1.563-1.562 1.563H2.813c-.863 0-1.562-.7-1.562-1.562V4.063zm5.625 4.063C6.875 6.399 8.274 5 10 5s3.125 1.399 3.125 3.125S11.726 11.25 10 11.25 6.875 9.851 6.875 8.125zm8.75-.625c-.345 0-.625.28-.625.625v.006c0 .345.28.625.625.625h.006c.345 0 .625-.28.625-.625v-.006c0-.345-.28-.625-.625-.625h-.006zM3.75 8.125c0-.345.28-.625.625-.625h.006c.345 0 .625.28.625.625v.006c0 .345-.28.625-.625.625h-.006c-.345 0-.625-.28-.625-.625v-.006z"/><path d="M1.875 15c-.345 0-.625.28-.625.625s.28.625.625.625a49.43 49.43 0 0 1 13 1.729c.992.27 2-.465 2-1.517v-.838c0-.345-.28-.625-.625-.625H1.875z"/></svg>
